X:1
T:E minor Jeremiah Ingalls, 1805
T:Isaac Watts, 1707 (Hymn 141, Book 1) 66. 86. (S. M.)
T:Elon
T:Treble-Tenor-Bass Transcribed from Ingalls' Christian Harmony , 1805; Counter by B. C. Johnston, 2017.
%%score [ 1 2 3 4 ]
L:1/8
Q:1/4=160
M:4/4
K:G
V:1 treble nm="Tr." snm="Tr."
V:2 treble nm="C." snm="C."
V:3 treble-8 nm="T." snm="T."
V:4 bass nm="B." snm="B."
V:1
"^1. Who   has   believed   thy  word, Or thy salvation known?  Reveal thine arm, Almighty  Lord,             And  glo  –  ri      –   fy   thy   Son." E8 | %1
 G2 B2 G2 B2 | G2 E2 F2 A2 | F2 A2 F2 D2 | E2 F2 G2 B2 | c2 BA B4 | z2 B2 e2 e2 | B4 [Bd]4 | %8
 [Be]8 | %9
 z4"^1. The Jews esteemed him here   Too  mean  for  their  belief;   Sor–rows his chief acquaintance were,  And  his  com–pa–nion, grief, And" B4 | %10
 d2 d2 d2 B2 | e6 dc | B2 B2 B2 A2 | d6 BA | G2 G2 B2 B2 | d2 d2 d2 B2 | c2 B2 A2 GA | B6 B2 | %18
"^1. his   companion,   grief." d2 B2 e2 e2 | e8 |] %20
V:2
"^2. They turned their  eyes  away,  And treated him with scorn;  But twas their grief upon him lay,        Their   sor–rows      he   has   borne.`" B8 | %1
 B2 E2 B2 E2 | B2 G2 F2 A2 | F2 D2 D2 F2 | G2 F2 E2 E2 | A2 Bc B4 | z2 B2 BA GA | B4 F4 | B8 | %9
 z4"^2. Twas for the stubborn Jews,  And  Gentiles then unknown,  The   God  of  justice  pleased  to  bruise   His  best – be–lo–ved   Son,   His" G4 | %10
 B2 d2 B2 G2 | A6 DE | F2 B2 B2 BA | F6 BA | G2 B2 BA GE | F2 D2 D2 G2 | F2 G2 A2 GF | E6 G2 | %18
"^2. best –be –lo – ved  Son." B2 B2 G2 E2 | E8 |] %20
V:3
"^3. \"But I'll  pro–long  his  days,  And make his kingdom stand; My pleasure,\" saith the God of grace,  \"Shall    pros–per      in    his    hand." B8 | %1
 B2 e2 B2 e2 | B2 G2 A2 c2 | A2 c2 A2 F2 | G2 A2 B2 e2 | e2 ^d2 e4 | z2 B2 B2 A2 | G4 F4 | E8 | %9
 z4"^3. His  joyful  soul  shall   see       The  pur–chase  of  his   pain     And    by    his  know–ledge  jus –ti –fy     The  guil–ty  sons  of   men,   The" G4 | %10
 B2 B2 B2 G2 | A6 Bc | d2 d2 d2 BA | B6 B2 | e2 e2 ef ge | f2 d2 B2 G2 | A2 B2 e2 ^d2 | e6 g2 | %18
"^3. guil – ty  sons   of    men." f2 ^d2 B2 B2 | B8 |] %20
V:4
"^4. Ten thousand captive  slaves,  Released from death and sin,  Shall quit their prisons and their graves  And  own    his    power   di – vine." E,8 | %1
 E,2 E,2 E,2 E,2 | E,2 G,2 D,2 D,2 | D,2 D,2 D,2 D,2 | G,2 F,2 E,2 E,2 | A,2 B,2 E,4 | %6
 z2 E,2 E,F, G,A, | B,4 B,,4 | E,8 | %9
"^4. Heav'n shall advance my Son   To  joys that earth denied;     Who  saw  the  fol–lies  men  had  done,   And  bore their sins, and died, And" z8 | %10
 z8 | z8 | z8 | z4 z2 E,2 | E,2 E,2 E,2 E,2 | B,2 B,2 G,2 E,2 | F,2 G,2 A,2 B,2 | E,6 E,2 | %18
"^4. bore their sins, and died." B,2 B,,2 E,2 E,2 | E,8 |] %20

